!! 00000] TT[00
!! NN
!!!OTL: Lang zai duimen chang Shange
!!!ARE: Asia, China, Shanxi Ziyang(sÅdl. d. Qinling-Gebirgs)
!! Ethnic Group: Han
!! I, 75, 2)
!!!SCT: C0025
!!!YEM: Copyright 1995, estate of Helmut Schaffrath.
**kern
*ICvox
*Ivox
!! Mixed meters:  2/4; 3/8
*M2/4
*k[f#c#]
*D:
{8b
8b
16dd
16ff#
8dd
=1
2b
=2
8ee
8b
8dd
[8ee
=3
2ee]}
=4
{8ff#
8ff#
8b
16b
16dd
=5
[4.dd
16dd]
16ee
=6
8ff#
8ff#
16dd
16ff#
8dd
=7
*M3/8
8b
4b}
=8
{16dd
16b
=9
*M2/4
8dd
8b
8dd
8b}
=10
{8b
8b
8dd
8b}
=11
{8b
8b
8dd
8b}
=12
{8b
8b
8ff#
8dd
=13
2ee
=14
8ff#
8dd
4b}
=15
{8.dd
16dd
8b
8b
=16
*M3/8
16b
16b
8dd
8b}
=17
{16dd
16dd
8b
8b}
=18
*M2/4
{8dd
16dd
16dd
8b
8b}
=19
{8.ff#
16ee
4dd
=20
2b
=21
8dd
4ee
8ff#}
=22
{8dd
8dd
8b
8b
=23
4.dd
8ee
=24
8ff#
8ff#
16dd
16ff#
8dd
=25
8b
4.b}
==
!!!AGN: Shange. Biaoda aiqing
!! Einige Verzierungen und Glissandi.
!!!ONB: ESAC (Essen Associative Code) Database: CHINA
!!!AMT: irregular
!!!AIN: vox
!!!EED: Helmut Schaffrath
!!!EEV: 1.0
*-
!!!ONB: Tied note syntax fixed by Craig Sapp, 2004/05/03/
